X:1
T:Charles's Cakewalk
L:1/8
M:C
R:March
C:T. S. Macdonald
K:A
c/d/ | e>a ga .f.d Bc/d/ | (ec).A.c (B/A/)G/F/ EA/B/ | c>B ca .e.c a>f | ecdB .c.A A :|:
G/A/ | B>c dB .e.c AB/c/ | (d/c/d/)(f/ e/f/)g/a/ e/(c/B/A/) BG/A/ | B>c df .e.c a>f | e/c/B/A/ E/F/A/B/ .c.A A2 :|:
K:Am
"Legato e misterioso"e/d/ | c>B cA Bd GA/B/ | c/B/c/d/ e/c/B/A/ B/A/^G/^F/ EA/B/ | c>B ca ec A>c | d/c/B/A/ ^G/A/B/G/ EA A :|
K:A
G/A/ | B>c dB .e.c AB/c/ | Ld/(c/B/A/) Le/(c/B/A/) .c.B BG/A/ | B>c df .e.c A>c | d/c/B/A/ G/A/B/G/ .E.A A G/A/ |
B>c dB .e.c AB/c/ | (d/c/d/)(f/ e/f/)g/a/ e/(c/B/A/) BG/A/ | B>c df .e.c a>f | e/c/B/A/ G/F/E/D/ CA, A, |]

